packages/symbols/svgs/duotone/accessibility-duotone.svg

<svg width="24" height="24" viewBox="0 0 24 24" fill="none" xmlns="http://www.w3.org/2000/svg">
<path fill-rule="evenodd" clip-rule="evenodd" d="M12 2C11.4477 2 11 2.44772 11 3C11 3.55228 11.4477 4 12 4C12.5523 4 13 3.55228 13 3C13 2.44772 12.5523 2 12 2ZM9 3C9 1.34315 10.3431 0 12 0C13.6569 0 15 1.34315 15 3C15 4.65685 13.6569 6 12 6C10.3431 6 9 4.65685 9 3Z" fill="black"/>
<path opacity="0.5" fill-rule="evenodd" clip-rule="evenodd" d="M2 7C1.44772 7 1 7.44772 1 8C1 8.55228 1.44772 9 2 9H8V16V23C8 23.5523 8.44772 24 9 24C9.55229 24 10 23.5523 10 23V17H14V23C14 23.5523 14.4477 24 15 24C15.5523 24 16 23.5523 16 23V16V9H22C22.5523 9 23 8.55228 23 8C23 7.44772 22.5523 7 22 7H15H9H2ZM10 9V15H14V9H10Z" fill="black"/>
</svg>

<svg width="24" height="24" viewBox="0 0 24 24" xmlns="http://www.w3.org/2000/svg"><path fill-rule="evenodd" clip-rule="evenodd" d="M12 2a1 1 0 1 0 0 2 1 1 0 0 0 0-2ZM9 3a3 3 0 1 1 6 0 3 3 0 0 1-6 0Z"/><path opacity=".5" fill-rule="evenodd" clip-rule="evenodd" d="M2 7a1 1 0 0 0 0 2h6v14a1 1 0 1 0 2 0v-6h4v6a1 1 0 1 0 2 0V9h6a1 1 0 1 0 0-2H2Zm8 2v6h4V9h-4Z"/></svg>
